svg/aws-ec2-ami.svg

<?xml version="1.0" encoding="UTF-8"?>
<svg xmlns="http://www.w3.org/2000/svg" xmlns:xlink="http://www.w3.org/1999/xlink" width="32" height="32" viewBox="0 0 32 32">
<path fill-rule="evenodd" fill="rgb(83.137255%, 35.686275%, 2.745098%)" fill-opacity="1" d="M 20.09375 25.152344 L 25.734375 25.152344 L 25.734375 17.769531 L 20.09375 17.769531 Z M 6.152344 25.152344 L 11.789062 25.152344 L 11.789062 17.769531 L 6.152344 17.769531 Z M 13.125 25.152344 L 18.761719 25.152344 L 18.761719 17.769531 L 13.125 17.769531 Z M 26.398438 16.4375 L 5.484375 16.4375 C 5.308594 16.4375 5.136719 16.507812 5.011719 16.632812 C 4.886719 16.757812 4.820312 16.929688 4.820312 17.105469 L 4.820312 25.816406 C 4.820312 26.1875 5.117188 26.484375 5.484375 26.484375 L 26.398438 26.484375 C 26.765625 26.484375 27.066406 26.183594 27.066406 25.816406 L 27.066406 17.105469 C 27.066406 16.734375 26.765625 16.4375 26.398438 16.4375 M 20.09375 12.953125 L 25.734375 12.953125 L 25.734375 7.3125 L 20.09375 7.3125 Z M 6.152344 12.953125 L 11.789062 12.953125 L 11.789062 7.3125 L 6.152344 7.3125 Z M 13.125 12.953125 L 18.761719 12.953125 L 18.761719 7.3125 L 13.125 7.3125 Z M 26.398438 5.980469 L 5.484375 5.980469 C 5.117188 5.980469 4.820312 6.28125 4.820312 6.648438 L 4.820312 13.617188 C 4.820312 13.988281 5.117188 14.285156 5.484375 14.285156 L 26.398438 14.285156 C 26.765625 14.285156 27.066406 13.984375 27.066406 13.617188 L 27.066406 6.648438 C 27.066406 6.28125 26.765625 5.980469 26.398438 5.980469 M 29.21875 26.253906 C 29.214844 27.890625 27.890625 29.214844 26.253906 29.21875 L 5.632812 29.21875 C 3.996094 29.214844 2.671875 27.890625 2.667969 26.253906 L 2.667969 5.632812 C 2.667969 3.996094 3.996094 2.667969 5.632812 2.667969 L 26.253906 2.667969 C 27.890625 2.671875 29.214844 3.996094 29.21875 5.632812 Z M 26.253906 1.332031 L 5.632812 1.332031 C 3.257812 1.335938 1.335938 3.257812 1.332031 5.632812 L 1.332031 26.253906 C 1.335938 28.625 3.257812 30.546875 5.632812 30.550781 L 26.253906 30.550781 C 28.625 30.550781 30.550781 28.625 30.550781 26.253906 L 30.550781 5.632812 C 30.550781 3.257812 28.628906 1.332031 26.253906 1.332031 M 26.253906 1.332031 "/>
</svg>

<svg role="img" viewBox="0 0 32 32" height="32" width="32" xmlns="http://www.w3.org/2000/svg"><path d="M20.094 25.152h5.64V17.77h-5.64Zm-13.942 0h5.637V17.77H6.152Zm6.973 0h5.637V17.77h-5.637Zm13.273-8.715H5.484a.671.671 0 0 0-.472.196.668.668 0 0 0-.192.472v8.711c0 .372.297.668.664.668h20.914a.67.67 0 0 0 .668-.668v-8.71c0-.372-.3-.669-.668-.669m-6.304-3.484h5.64v-5.64h-5.64Zm-13.942 0h5.637v-5.64H6.152Zm6.973 0h5.637v-5.64h-5.637ZM26.398 5.98H5.484a.667.667 0 0 0-.664.668v6.97c0 .37.297.667.664.667h20.914a.67.67 0 0 0 .668-.668V6.648a.67.67 0 0 0-.668-.668m2.82 20.274a2.97 2.97 0 0 1-2.964 2.965H5.633a2.97 2.97 0 0 1-2.965-2.965V5.633a2.966 2.966 0 0 1 2.965-2.965h20.62a2.97 2.97 0 0 1 2.966 2.965ZM26.255 1.332H5.633a4.306 4.306 0 0 0-4.301 4.3v20.622a4.305 4.305 0 0 0 4.3 4.297h20.622a4.3 4.3 0 0 0 4.297-4.297V5.633a4.298 4.298 0 0 0-4.297-4.301m0 0" fill="rgb(83.137255%, 35.686275%, 2.745098%)" fill-rule="evenodd"/></svg>
